Square/Lähitapiola.svg

<?xml version="1.0" encoding="UTF-8"?>
<svg width="32px" height="32px" viewBox="0 0 32 32" version="1.1" xmlns="http://www.w3.org/2000/svg" xmlns:xlink="http://www.w3.org/1999/xlink">
    <!-- Generator: Sketch 52.3 (67297) - http://www.bohemiancoding.com/sketch -->
    <title>Square/Lähitapiola</title>
    <desc>Created with Sketch.</desc>
    <g id="Square/Lähitapiola" stroke="none" stroke-width="1" fill="none" fill-rule="evenodd">
        <path d="M2.04318322,21.2681978 C-0.681061073,18.5432876 -0.681061073,14.1597363 2.04318322,11.4348261 L11.4398519,2.03586044 C13.5718692,-0.0966779976 16.7698951,-0.570575427 19.375694,0.693151052 L19.3362122,0.732642504 L10.0974707,9.93415093 L10.0579889,9.97364238 C9.14990746,10.8819458 9.14990746,12.3431295 10.0579889,13.2514329 C10.9660703,14.1597363 12.426897,14.1597363 13.3349784,13.2514329 L14.9537323,11.5927919 C15.8618137,10.6844885 16.8093769,10.6449971 17.599013,11.4743176 L21.1128933,14.9890568 C22.0604565,15.9368517 22.1789019,16.7266808 21.1128933,17.79295 L17.8359038,21.110232 C16.9278223,22.0185354 16.0592227,22.1370097 15.0326959,21.110232 L8.59716225,14.7126167 C7.68908081,13.8043133 6.22825416,13.8043133 5.32017273,14.7126167 C4.4120913,15.6209201 4.4120913,17.0821038 5.32017273,17.9904072 L13.4929056,26.1256464 C15.1116595,27.744796 17.6779766,27.744796 19.2967304,26.1256464 L26.2060457,19.2146423 C27.8247995,17.6349842 27.8247995,15.0285483 26.2060457,13.4093987 L20.9154843,8.15703557 C20.0863664,7.32771507 20.16533,6.41941166 20.9944479,5.55059971 L22.6921653,3.85246725 C22.7711289,3.77348434 22.8500925,3.69450144 22.8895743,3.61551853 L29.4830352,10.2105911 C32.8389883,13.5673646 32.8389883,19.0566765 29.4830352,22.4134499 L22.4552745,29.4824199 C19.0993214,32.8391934 13.611351,32.8391934 10.2553979,29.4824199 L2.04318322,21.2681978 Z" id="Lähitapiola" fill="#00B1DF"></path>
    </g>
</svg>

<svg width="32" height="32" xmlns="http://www.w3.org/2000/svg"><path d="M2.043 21.268a6.937 6.937 0 0 1 0-9.833l9.397-9.4A6.942 6.942 0 0 1 19.376.694l-.04.04-9.239 9.201-.039.04a2.312 2.312 0 0 0 0 3.277 2.311 2.311 0 0 0 3.277 0l1.619-1.658c.908-.909 1.855-.948 2.645-.119l3.514 3.515c.947.948 1.066 1.738 0 2.804l-3.277 3.317c-.908.909-1.777 1.027-2.803 0l-6.436-6.397a2.311 2.311 0 0 0-3.277 0 2.312 2.312 0 0 0 0 3.277l8.173 8.136a4.074 4.074 0 0 0 5.804 0l6.909-6.911c1.619-1.58 1.619-4.186 0-5.806l-5.29-5.252c-.83-.83-.75-1.738.078-2.606l1.698-1.699c.08-.079.158-.157.198-.236l6.593 6.595c3.356 3.356 3.356 8.846 0 12.202l-7.028 7.07c-3.356 3.356-8.844 3.356-12.2 0l-8.212-8.215z" fill="#00B1DF" fill-rule="evenodd"/></svg>
